X:3
T:Sparve Lille
R:polska K1
A:V\"armland
Z:id:hn-k1-3
M:3/4
L:1/8
K:D
a|a2 fa fa|ag eg eg|af df ec|d>e fa (3^gfg|
a2 fa fa|ag eg eg|af df ed|(3cBc d3:|
|:A|A2 df ec|de fa (3^gfg|a2 fd ec|d2 ef dc/B/|
A2 df ec|de fa (3^gfg|a2 fd ed|(3cBc d3:|
P:spelas \"aven s{\aa} h\"ar
[K:Dlyd]|:a|a2 fa fa|ag eg eg|af df ec|d>e fa (3gfg|
a2 fa fa|ag eg eg|af df ed|(3cBc d3:|
|:A|A2 df ec|d>e fa (3gfg|a2 fd ec|d2 ef dc/B/|
A2 df ec|d>e fa (3gfg|a2 fd ed|(3cBc d3:|
<end>
<start>
